X:1
T:Freut Euch, Ihr Lieben, 76.76 D
T:Leonhart Schröter, 1587
T:Freut Euch, Ihr Lieben, 76.76 D
T:Public Domain
C:Leonhart Schr&#246;ter, 1587
Z:Public Domain
%%score ( 1 2 ) ( 3 4 )
L:1/8
M:4/4
K:F
V:1 treble 
V:2 treble 
V:3 bass 
V:4 bass 
V:1
 [CF]2 | [CF]2 [DF]2 [EG]2 [FA]2 | [FB]4 [FA]2 [FA]2 | [DG]2 [CF]2 [DF]2 [CE]2 | [CF]6 [CF]2 | %5
 [CF]2 [DF]2 [EG]2 [FA]2 | [FB]4 [FA]2 [FA]2 | [EG]2 [DF]2 [DG]2 [EG]2 | [FA]6 [FA]2 | %9
 [Gc]2 [Ec]2 [Fc]2 [D=B]2 | [Ec]4 [Ec]2 [Gc]2 | [G=B]2 [Ec]2 [Fc]2 [DB]2 | [Ec]6 [Fc]2 | %13
 [Ec]2 [Fc]2 [GB]2 [EB]2 | [FA]4 [EG]2 [EG]2 | [FA]2 [FB]2 F2 z B x | A2 B2 F2 E2 | F6 |] %18
V:2
 x2 | x8 | x8 | x8 | x8 | x8 | x8 | x8 | x8 | x8 | x8 | x8 | x8 | x8 | x8 | x4 c3 E2 | F4 G4 | %17
 F6 |] %18
V:3
 [F,A,]2 | [F,A,]2 [D,A,]2 [C,C]2 [F,,C]2 | [B,,D]4 [F,C]2 [F,,C]2 | %3
 [G,,B,]2 [A,,A,]2 [B,,G,]2 [C,G,]2 | [F,,A,]6 [F,A,]2 | [F,A,]2 [D,A,]2 [C,C]2 [F,,C]2 | %6
 [B,,D]4 [F,C]2 [F,C]2 | [C,C]2 [D,A,]2 [G,,B,]2 [C,C]2 | [F,,C]6 [F,C]2 | %9
 [E,C]2 [C,G,]2 [F,A,]2 G,2 | [C,G,]4 [C,G,]2 [E,C]2 | [G,D]2 [A,C]2 [F,A,]2 G,2 | %12
 [C,G,]6 [F,A,]2 | [A,C]2 [A,C]2 [G,D]2 [G,B,]2 | [F,C]4 [C,C]2 [C,C]2 | [F,C]2 [B,D]2 A,3 G, x | %16
 [F,C]2 [B,,D]2 C3 B, | [F,A,]6 |] %18
V:4
 x2 | x8 | x8 | x8 | x8 | x8 | x8 | x8 | x8 | x6 G,2 | x8 | x6 G,2 | x8 | x8 | x8 | x4 C4- x | %16
 x4 C,4 | x6 |] %18

